X:185
T:Opera Polka. Le4.185, The
Q:1/4=100
L:1/8
B:L.Leadley MS#4 c1850
Z:vmp.Mike Hicken 2016 www.village-music-project.org.uk
N:Tune 96 in "The Fiddler of Helperby"
M:2/4
K:C
Gc c/B/c|dG G/^F/G|dGfG|ag g/f/e|Gc c/B/c|dG G/^F/G|dGfG|dcc z||
Bdgb|ba/g/ ^fe|ed d/^c/d|ed d/^c/d|Bdgb|ba/g/ ^fe|e/d/^c/d/ e/^f/g/a/|ba g2||
bB ba|ag g/f/e|gG gf|fe e/d/c|bd ba|ag g/f/e|db/a/ g/f/e/d/|cecz||
Gc c/B/c|dG G/^F/G|dG fG|ag g/f/e|Gc c/B/c|dG G/^F/G|dGfG|dc c2 |]

